libree/static/icons/tool-number_converter-48.svg

<?xml version="1.0" encoding="UTF-8" standalone="no"?>
<!-- Created with Inkscape (http://www.inkscape.org/) -->

<svg
   xmlns:dc="http://purl.org/dc/elements/1.1/"
   xmlns:cc="http://creativecommons.org/ns#"
   xmlns:rdf="http://www.w3.org/1999/02/22-rdf-syntax-ns#"
   xmlns:svg="http://www.w3.org/2000/svg"
   xmlns="http://www.w3.org/2000/svg"
   xmlns:xlink="http://www.w3.org/1999/xlink"
   version="1.1"
   width="48"
   height="48"
   id="svg2">
  <metadata
     id="metadata8">
    <rdf:RDF>
      <cc:Work
         rdf:about="">
        <dc:format>image/svg+xml</dc:format>
        <dc:type
           rdf:resource="http://purl.org/dc/dcmitype/StillImage" />
        <dc:title></dc:title>
      </cc:Work>
    </rdf:RDF>
  </metadata>
  <defs
     id="defs6">
    <linearGradient
       id="linearGradient3091">
      <stop
         id="stop3093"
         style="stop-color:#f79a9a;stop-opacity:1"
         offset="0" />
      <stop
         id="stop3095"
         style="stop-color:#f14444;stop-opacity:1"
         offset="1" />
    </linearGradient>
    <linearGradient
       id="linearGradient3081">
      <stop
         id="stop3083"
         style="stop-color:#729fcf;stop-opacity:1"
         offset="0" />
      <stop
         id="stop3085"
         style="stop-color:#4380bf;stop-opacity:1"
         offset="1" />
    </linearGradient>
    <linearGradient
       id="linearGradient3067">
      <stop
         id="stop3069"
         style="stop-color:#eeeeec;stop-opacity:1"
         offset="0" />
      <stop
         id="stop3071"
         style="stop-color:#eeeeec;stop-opacity:0"
         offset="1" />
    </linearGradient>
    <linearGradient
       id="linearGradient3034">
      <stop
         id="stop3036"
         style="stop-color:#ffffff;stop-opacity:0.68613136"
         offset="0" />
      <stop
         id="stop3038"
         style="stop-color:#ffffff;stop-opacity:0"
         offset="1" />
    </linearGradient>
    <linearGradient
       id="linearGradient4223">
      <stop
         id="stop4225"
         style="stop-color:#5789ca;stop-opacity:1"
         offset="0" />
      <stop
         id="stop4227"
         style="stop-color:#2c568c;stop-opacity:1"
         offset="1" />
    </linearGradient>
    <linearGradient
       id="linearGradient4565">
      <stop
         id="stop4567"
         style="stop-color:#3a3a3a;stop-opacity:1"
         offset="0" />
      <stop
         id="stop4569"
         style="stop-color:#000000;stop-opacity:0"
         offset="1" />
    </linearGradient>
    <radialGradient
       cx="24.714285"
       cy="38.57143"
       r="19.714285"
       fx="24.714285"
       fy="38.57143"
       id="radialGradient3291"
       xlink:href="#linearGradient4565"
       gradientUnits="userSpaceOnUse"
       gradientTransform="matrix(0.36661808,0,0,0.13564065,14.894292,31.356654)" />
    <radialGradient
       cx="12.25"
       cy="4.309896"
       r="22"
       fx="12.25"
       fy="4.309896"
       id="radialGradient4229"
       xlink:href="#linearGradient4223"
       gradientUnits="userSpaceOnUse"
       gradientTransform="matrix(1.1875,1.4431818,-0.69611024,0.57277851,0.70328751,-13.897593)" />
    <linearGradient
       x1="24.4375"
       y1="30.6875"
       x2="24.4375"
       y2="37"
       id="linearGradient3040"
       xlink:href="#linearGradient3034"
       gradientUnits="userSpaceOnUse"
       gradientTransform="translate(-1,-0.9999996)" />
    <linearGradient
       x1="24.4375"
       y1="30.6875"
       x2="24.4375"
       y2="37"
       id="linearGradient3044"
       xlink:href="#linearGradient3034"
       gradientUnits="userSpaceOnUse"
       gradientTransform="translate(-1,-23)" />
    <linearGradient
       x1="24.4375"
       y1="30.6875"
       x2="24.4375"
       y2="37"
       id="linearGradient3027"
       xlink:href="#linearGradient3034"
       gradientUnits="userSpaceOnUse"
       gradientTransform="translate(-1,-12)" />
    <radialGradient
       cx="11"
       cy="40"
       r="6.5"
       fx="11"
       fy="40"
       id="radialGradient3073"
       xlink:href="#linearGradient3067"
       gradientUnits="userSpaceOnUse"
       gradientTransform="matrix(0.46153847,4.7692312e-8,-3.8779563e-7,0.92307692,5.9230923,3.0769225)" />
    <linearGradient
       x1="2.1213202"
       y1="35.537243"
       x2="47.376156"
       y2="45.613514"
       id="linearGradient3089"
       xlink:href="#linearGradient3081"
       gradientUnits="userSpaceOnUse" />
    <radialGradient
       cx="24.6875"
       cy="27.8125"
       r="7"
       fx="24.6875"
       fy="27.8125"
       id="radialGradient3097"
       xlink:href="#linearGradient3091"
       gradientUnits="userSpaceOnUse"
       gradientTransform="matrix(1.0178572,0,1.4956799e-6,1,-0.4408901,5.3124438e-8)" />
    <clipPath
       id="clipPath3101">
      <path
         d="m 18.522727,37.551136 c 5.170455,-2.215909 17.505682,-2.806818 17.875,-2.806818 0.369318,0 5.170455,-12.335227 5.170455,-12.335227 L 19.852273,15.613636 c 0,0 -5.244318,5.46591 -5.539773,6.869319 -0.295455,1.403409 4.210227,15.068181 4.210227,15.068181 z"
         id="path3103"
         style="fill:none;stroke:#000000;stroke-width:1px;stroke-linecap:butt;stroke-linejoin:miter;stroke-opacity:1" />
    </clipPath>
    <clipPath
       id="clipPath3105">
      <path
         d="m 19.75,36.3125 c 4.375,-1.875 14.8125,-2.375 15.125,-2.375 0.3125,0 4.375,-10.4375 4.375,-10.4375 L 20.875,17.75 c 0,0 -4.4375,4.625 -4.6875,5.8125 -0.25,1.1875 3.5625,12.75 3.5625,12.75 z"
         id="path3107"
         style="fill:none;stroke:#000000;stroke-width:1px;stroke-linecap:butt;stroke-linejoin:miter;stroke-opacity:1" />
    </clipPath>
  </defs>
  <path
     d="m 24,16.5 -5.5,5 3,0 0,7 -3,0 5.5,5 5.5,-5 -3,0 0,-7 3,0 -5.5,-5 z"
     id="path3049"
     style="fill:#729fcf;stroke:#204a87;stroke-width:1px;stroke-linecap:butt;stroke-linejoin:miter;stroke-opacity:1" />
  <text
     x="1.0606601"
     y="35.095303"
     id="text3006"
     xml:space="preserve"
     style="font-size:40px;font-style:normal;font-weight:normal;line-height:125%;letter-spacing:0px;word-spacing:0px;fill:#000000;fill-opacity:1;stroke:none;font-family:Sans"><tspan
       x="1.0606601"
       y="35.095303"
       id="tspan3008"
       style="font-size:40px;font-style:normal;font-variant:normal;font-weight:bold;font-stretch:normal;text-align:start;line-height:125%;writing-mode:lr-tb;text-anchor:start;font-family:TeXGyreCursor;-inkscape-font-specification:TeXGyreCursor Bold" /></text>
  <text
     x="24.082994"
     y="13"
     id="text3023"
     xml:space="preserve"
     style="font-size:18.44311523px;font-style:normal;font-variant:normal;font-weight:normal;font-stretch:normal;text-align:center;line-height:125%;letter-spacing:0px;word-spacing:0px;writing-mode:lr-tb;text-anchor:middle;fill:#4e9a06;fill-opacity:1;stroke:none;font-family:Ubuntu Mono;-inkscape-font-specification:Ubuntu Mono"><tspan
       x="24.082994"
       y="13"
       id="tspan3027">0x02</tspan></text>
  <text
     x="24"
     y="46"
     id="text3043"
     xml:space="preserve"
     style="font-size:18.44311523px;font-style:normal;font-variant:normal;font-weight:normal;font-stretch:normal;text-align:center;line-height:125%;letter-spacing:0px;word-spacing:0px;writing-mode:lr-tb;text-anchor:middle;fill:#2e3436;fill-opacity:1;stroke:none;font-family:Ubuntu Mono;-inkscape-font-specification:Ubuntu Mono"><tspan
       x="24"
       y="46"
       id="tspan3045">0b10</tspan></text>
  <path
     d="m 24,16.5 -5.5,5 3,0 0,7 -3,0 5.5,5 5.5,-5 -3,0 0,-7 3,0 -5.5,-5 z"
     id="path3052"
     style="fill:#729fcf;stroke:none" />
  <path
     d="m 21.5,24.59375 0,3.90625 -3,0 5.5,5 5.5,-5 -3,0 0,-2.75 C 25,25.5 24,25 24,25 c 0,0 -1.042941,-0.323219 -2.5,-0.40625 z"
     id="path3056"
     style="opacity:0.25;fill:#eeeeec;stroke:none" />
  <path
     d="m 24,16.5 -5.5,5 3,0 0,7 -3,0 5.5,5 5.5,-5 -3,0 0,-7 3,0 -5.5,-5 z"
     id="path3059"
     style="fill:none;stroke:#204a87;stroke-width:1px;stroke-linecap:butt;stroke-linejoin:miter;stroke-opacity:1" />
</svg>

<?xml version="1.0" encoding="UTF-8" standalone="no"?>
<!-- Created with Inkscape (http://www.inkscape.org/) -->

<svg
   xmlns:dc="http://purl.org/dc/elements/1.1/"
   xmlns:cc="http://creativecommons.org/ns#"
   xmlns:rdf="http://www.w3.org/1999/02/22-rdf-syntax-ns#"
   xmlns:svg="http://www.w3.org/2000/svg"
   xmlns="http://www.w3.org/2000/svg"
   xmlns:xlink="http://www.w3.org/1999/xlink"
   xmlns:sodipodi="http://sodipodi.sourceforge.net/DTD/sodipodi-0.dtd"
   xmlns:inkscape="http://www.inkscape.org/namespaces/inkscape"
   version="1.1"
   width="48"
   height="48"
   id="svg2"
   inkscape:version="0.48.4 r9939"
   sodipodi:docname="tool-ieee_converter-48.svg">
  <sodipodi:namedview
     pagecolor="#ffffff"
     bordercolor="#666666"
     borderopacity="1"
     objecttolerance="10"
     gridtolerance="10"
     guidetolerance="10"
     inkscape:pageopacity="0"
     inkscape:pageshadow="2"
     inkscape:window-width="1450"
     inkscape:window-height="874"
     id="namedview28"
     showgrid="false"
     inkscape:zoom="1"
     inkscape:cx="40.500482"
     inkscape:cy="20.659992"
     inkscape:window-x="150"
     inkscape:window-y="0"
     inkscape:window-maximized="1"
     inkscape:current-layer="svg2"
     showguides="true"
     inkscape:guide-bbox="true"
     inkscape:object-nodes="true">
    <inkscape:grid
       type="xygrid"
       id="grid2996" />
  </sodipodi:namedview>
  <metadata
     id="metadata8">
    <rdf:RDF>
      <cc:Work
         rdf:about="">
        <dc:format>image/svg+xml</dc:format>
        <dc:type
           rdf:resource="http://purl.org/dc/dcmitype/StillImage" />
        <dc:title></dc:title>
      </cc:Work>
    </rdf:RDF>
  </metadata>
  <defs
     id="defs6">
    <linearGradient
       id="linearGradient3091">
      <stop
         style="stop-color:#f79a9a;stop-opacity:1;"
         offset="0"
         id="stop3093" />
      <stop
         style="stop-color:#f14444;stop-opacity:1;"
         offset="1"
         id="stop3095" />
    </linearGradient>
    <linearGradient
       id="linearGradient3081">
      <stop
         style="stop-color:#729fcf;stop-opacity:1;"
         offset="0"
         id="stop3083" />
      <stop
         style="stop-color:#4380bf;stop-opacity:1;"
         offset="1"
         id="stop3085" />
    </linearGradient>
    <linearGradient
       inkscape:collect="always"
       id="linearGradient3067">
      <stop
         style="stop-color:#eeeeec;stop-opacity:1;"
         offset="0"
         id="stop3069" />
      <stop
         style="stop-color:#eeeeec;stop-opacity:0;"
         offset="1"
         id="stop3071" />
    </linearGradient>
    <linearGradient
       id="linearGradient3034">
      <stop
         style="stop-color:#ffffff;stop-opacity:0.68613136;"
         offset="0"
         id="stop3036" />
      <stop
         style="stop-color:#ffffff;stop-opacity:0;"
         offset="1"
         id="stop3038" />
    </linearGradient>
    <linearGradient
       id="linearGradient4223">
      <stop
         id="stop4225"
         style="stop-color:#5789ca;stop-opacity:1"
         offset="0" />
      <stop
         id="stop4227"
         style="stop-color:#2c568c;stop-opacity:1"
         offset="1" />
    </linearGradient>
    <linearGradient
       id="linearGradient4565">
      <stop
         id="stop4567"
         style="stop-color:#3a3a3a;stop-opacity:1"
         offset="0" />
      <stop
         id="stop4569"
         style="stop-color:#000000;stop-opacity:0"
         offset="1" />
    </linearGradient>
    <radialGradient
       cx="24.714285"
       cy="38.57143"
       r="19.714285"
       fx="24.714285"
       fy="38.57143"
       id="radialGradient3291"
       xlink:href="#linearGradient4565"
       gradientUnits="userSpaceOnUse"
       gradientTransform="matrix(0.36661808,0,0,0.13564065,14.894292,31.356654)" />
    <radialGradient
       cx="12.25"
       cy="4.309896"
       r="22"
       fx="12.25"
       fy="4.309896"
       id="radialGradient4229"
       xlink:href="#linearGradient4223"
       gradientUnits="userSpaceOnUse"
       gradientTransform="matrix(1.1875,1.4431818,-0.69611024,0.57277851,0.70328751,-13.897593)" />
    <linearGradient
       inkscape:collect="always"
       xlink:href="#linearGradient3034"
       id="linearGradient3040"
       x1="24.4375"
       y1="30.6875"
       x2="24.4375"
       y2="37"
       gradientUnits="userSpaceOnUse"
       gradientTransform="translate(-1,-0.9999996)" />
    <linearGradient
       inkscape:collect="always"
       xlink:href="#linearGradient3034"
       id="linearGradient3044"
       gradientUnits="userSpaceOnUse"
       x1="24.4375"
       y1="30.6875"
       x2="24.4375"
       y2="37"
       gradientTransform="translate(-1,-23)" />
    <linearGradient
       inkscape:collect="always"
       xlink:href="#linearGradient3034"
       id="linearGradient3027"
       gradientUnits="userSpaceOnUse"
       gradientTransform="translate(-1,-12)"
       x1="24.4375"
       y1="30.6875"
       x2="24.4375"
       y2="37" />
    <radialGradient
       inkscape:collect="always"
       xlink:href="#linearGradient3067"
       id="radialGradient3073"
       cx="11"
       cy="40"
       fx="11"
       fy="40"
       r="6.5"
       gradientTransform="matrix(0.46153847,4.7692312e-8,-3.8779563e-7,0.92307692,5.9230923,3.0769225)"
       gradientUnits="userSpaceOnUse" />
    <linearGradient
       inkscape:collect="always"
       xlink:href="#linearGradient3081"
       id="linearGradient3089"
       x1="2.1213202"
       y1="35.537243"
       x2="47.376156"
       y2="45.613514"
       gradientUnits="userSpaceOnUse" />
    <radialGradient
       inkscape:collect="always"
       xlink:href="#linearGradient3091"
       id="radialGradient3097"
       cx="24.6875"
       cy="27.8125"
       fx="24.6875"
       fy="27.8125"
       r="7"
       gradientUnits="userSpaceOnUse"
       gradientTransform="matrix(1.0178572,0,1.4956799e-6,1,-0.4408901,5.3124438e-8)" />
    <clipPath
       clipPathUnits="userSpaceOnUse"
       id="clipPath3101">
      <path
         style="fill:none;stroke:#000000;stroke-width:1px;stroke-linecap:butt;stroke-linejoin:miter;stroke-opacity:1"
         d="m 18.522727,37.551136 c 5.170455,-2.215909 17.505682,-2.806818 17.875,-2.806818 0.369318,0 5.170455,-12.335227 5.170455,-12.335227 L 19.852273,15.613636 c 0,0 -5.244318,5.46591 -5.539773,6.869319 -0.295455,1.403409 4.210227,15.068181 4.210227,15.068181 z"
         id="path3103"
         inkscape:connector-curvature="0" />
    </clipPath>
    <clipPath
       clipPathUnits="userSpaceOnUse"
       id="clipPath3105">
      <path
         style="fill:none;stroke:#000000;stroke-width:1px;stroke-linecap:butt;stroke-linejoin:miter;stroke-opacity:1"
         d="m 19.75,36.3125 c 4.375,-1.875 14.8125,-2.375 15.125,-2.375 0.3125,0 4.375,-10.4375 4.375,-10.4375 L 20.875,17.75 c 0,0 -4.4375,4.625 -4.6875,5.8125 -0.25,1.1875 3.5625,12.75 3.5625,12.75 z"
         id="path3107"
         inkscape:connector-curvature="0" />
    </clipPath>
  </defs>
  <path
     style="fill:#729fcf;stroke:#204a87;stroke-width:1px;stroke-linecap:butt;stroke-linejoin:miter;stroke-opacity:1"
     d="M 24 16.5 L 18.5 21.5 L 21.5 21.5 L 21.5 28.5 L 18.5 28.5 L 24 33.5 L 29.5 28.5 L 26.5 28.5 L 26.5 21.5 L 29.5 21.5 L 24 16.5 z "
     id="path3049" />
  <text
     x="1.0606601"
     y="35.095303"
     id="text3006"
     xml:space="preserve"
     style="font-size:40px;font-style:normal;font-weight:normal;line-height:125%;letter-spacing:0px;word-spacing:0px;fill:#000000;fill-opacity:1;stroke:none;font-family:Sans"><tspan
       x="1.0606601"
       y="35.095303"
       id="tspan3008"
       style="font-size:40px;font-style:normal;font-variant:normal;font-weight:bold;font-stretch:normal;text-align:start;line-height:125%;writing-mode:lr-tb;text-anchor:start;font-family:TeXGyreCursor;-inkscape-font-specification:TeXGyreCursor Bold" /></text>
  <text
     xml:space="preserve"
     style="font-size:17.35299300999999872px;font-style:normal;font-weight:normal;text-align:center;line-height:125%;letter-spacing:0px;word-spacing:0px;text-anchor:middle;fill:#4e9a06;fill-opacity:1;stroke:none;font-family:Sans"
     x="24"
     y="15"
     id="text3023"
     sodipodi:linespacing="125%"><tspan
       sodipodi:role="line"
       x="24"
       y="15"
       id="tspan3027">0x02</tspan></text>
  <text
     sodipodi:linespacing="125%"
     id="text3043"
     y="46"
     x="24"
     style="font-size:17.35299300999999872px;font-style:normal;font-weight:normal;text-align:center;line-height:125%;letter-spacing:0px;word-spacing:0px;text-anchor:middle;fill:#2e3436;fill-opacity:1;stroke:none;font-family:Sans"
     xml:space="preserve"><tspan
       id="tspan3045"
       y="46"
       x="24"
       sodipodi:role="line">0b02</tspan></text>
  <path
     id="path3052"
     d="M 24 16.5 L 18.5 21.5 L 21.5 21.5 L 21.5 28.5 L 18.5 28.5 L 24 33.5 L 29.5 28.5 L 26.5 28.5 L 26.5 21.5 L 29.5 21.5 L 24 16.5 z "
     style="fill:#729fcf;stroke:none;stroke-width:1px;stroke-linecap:butt;stroke-linejoin:miter;stroke-opacity:1" />
  <path
     style="fill:#eeeeec;stroke:none;stroke-width:1px;stroke-linecap:butt;stroke-linejoin:miter;stroke-opacity:1;opacity:0.25000000000000000"
     d="M 21.5 24.59375 L 21.5 28.5 L 18.5 28.5 L 24 33.5 L 29.5 28.5 L 26.5 28.5 L 26.5 25.75 C 25 25.5 24 25 24 25 C 24 25 22.957059 24.676781 21.5 24.59375 z "
     id="path3056" />
  <path
     style="fill:none;stroke:#204a87;stroke-width:1px;stroke-linecap:butt;stroke-linejoin:miter;stroke-opacity:1"
     d="M 24 16.5 L 18.5 21.5 L 21.5 21.5 L 21.5 28.5 L 18.5 28.5 L 24 33.5 L 29.5 28.5 L 26.5 28.5 L 26.5 21.5 L 29.5 21.5 L 24 16.5 z "
     id="path3059" />
</svg>
